X: 11
T: Cameronian, The
Z: tziguk
S: https://thesession.org/tunes/284#setting53364
R: reel
M: 4/4
L: 1/8
K: Dmaj
|:A2 FA DAFA|GFEF GBdB|A2FA DAFA|GBAG FDDB|
AF (3FFF DF (3FFF|GFEF GBdB|A2AB A2FA|1GBAG FDDB:|2(3Bcd AG FDDB||
|:Addc d2dA|(3Bcd ef gfed|(3cBA eA fAeA|(3Bcd ef gfeg|
faeg faeg|fddc defg|(3agf ge fdec|1dBAG FDDB:|2dBAG FDdB||

%-------------------- TUNE SEPARATOR --------------------%

